icons/cast.svg

<svg width="48" height="48" viewBox="0 0 48 48" fill="none" xmlns="http://www.w3.org/2000/svg">
<path fill-rule="evenodd" clip-rule="evenodd" d="M42 16.0001C42 14.9856 41.6224 14.0594 41 13.3542V7H28V13.3542C27.3776 14.0593 27 14.9856 27 16.0001V26.0001L17.3126 26.0001L12.617 22.7494C11.3106 21.845 9.52256 22.1384 8.57377 23.4129C7.67502 24.6202 7.83071 26.3085 8.92948 27.3313L8.15079 27.4611C6.90967 27.6679 6 28.7418 6 30C6 30.7995 6.36726 31.5245 6.95346 32C6.36726 32.4755 6 33.2005 6 34C6 34.801 6.36866 35.5273 6.9568 36.0027C6.36971 36.4691 6 37.1883 6 37.9835C6 39.2571 6.94811 40.3379 8.22197 40.4878C9.86327 40.681 12.704 41 13.688 41V40.9881C13.7909 40.996 13.895 41.0001 14 41.0001H38C40.2091 41.0001 42 39.2092 42 37.0001V16.0001ZM10.3878 38.7203C10.1701 38.264 10.0363 37.76 10.0064 37.2283L8.45027 37.4609C8.19149 37.4996 8 37.7219 8 37.9835C8 38.2521 8.19804 38.4712 8.4557 38.5015C9.02641 38.5687 9.70531 38.6465 10.3878 38.7203ZM8.47959 33.4339L9.99998 33.1805V34.8195L8.47959 34.5661C8.20284 34.52 8 34.2806 8 34C8 33.7194 8.20284 33.48 8.47959 33.4339ZM8.47959 30.5661L9.99998 30.8195V30.0001C9.99998 29.714 10.03 29.435 10.0871 29.1659L8.47959 29.4339C8.20284 29.48 8 29.7194 8 30C8 30.2806 8.20284 30.52 8.47959 30.5661ZM11.4786 24.3938L13.8056 26.0047C12.9121 26.0474 12.0954 26.3834 11.4496 26.9184L10.3012 25.8757C9.93986 25.5476 9.88656 24.9987 10.178 24.6072C10.4832 24.1972 11.0584 24.1029 11.4786 24.3938ZM21.0542 39.0001L14.6767 28.0001H14C12.8954 28.0001 12 28.8955 12 30.0001V37.0001C12 38.1046 12.8954 39.0001 14 39.0001H21.0542ZM16.9886 28.0001L23.3661 39.0001H28.0542L21.6767 28.0001H16.9886ZM38.5181 38.9323C38.3529 38.9765 38.1792 39.0001 38 39.0001H30.3661L23.9886 28.0001H27.5858L38.5181 38.9323ZM39.9323 37.518L29 26.5858V23.7853L39.9418 27.4326C39.9611 27.439 39.9805 27.4448 40 27.45V37.0001C40 37.1792 39.9764 37.3528 39.9323 37.518ZM40 16.6861L29 19.8738V21.6771L40 25.3438V16.6861ZM39.5488 14.7345L29 17.7915V16.0001C29 14.8955 29.8954 14.0001 31 14.0001H38C38.6244 14.0001 39.182 14.2862 39.5488 14.7345ZM39 9H30V12H39V9Z" fill="black"/>
</svg>

<svg
  xmlns="http://www.w3.org/2000/svg"
  width="24"
  height="24"
  viewBox="0 0 24 24"
  fill="none"
  stroke="currentColor"
  stroke-width="2"
  stroke-linecap="round"
  stroke-linejoin="round"
>
  <path
    fill-rule="evenodd"
    d="M42 16c0-1.014-.378-1.94-1-2.646V7H28v6.354c-.622.705-1 1.632-1 2.646v10h-9.687l-4.696-3.25a2.948 2.948 0 0 0-3.688 4.581l-.778.13A2.574 2.574 0 0 0 6.953 32a2.572 2.572 0 0 0 .004 4.003A2.53 2.53 0 0 0 6 37.983c0 1.274.948 2.355 2.222 2.505 1.641.193 4.482.512 5.466.512v-.012Q13.843 41 14 41h24a4 4 0 0 0 4-4zM10.388 38.72a4 4 0 0 1-.382-1.492l-1.556.233a.53.53 0 0 0-.45.523c0 .268.198.487.456.517.57.068 1.25.146 1.932.22M8.48 33.434 10 33.18v1.639l-1.52-.254a.574.574 0 0 1 0-1.132m0-2.868 1.52.254V30q0-.43.087-.834l-1.607.268a.574.574 0 0 0 0 1.132m2.999-6.172 2.327 1.61a4 4 0 0 0-2.356.914L10.3 25.876a.948.948 0 0 1 1.178-1.482M21.054 39l-6.377-11H14a2 2 0 0 0-2 2v7a2 2 0 0 0 2 2zM16.99 28l6.377 11h4.688l-6.377-11zm21.53 10.932A2 2 0 0 1 38 39h-7.634L23.99 28h3.597zm1.413-1.414L29 26.586v-2.8l10.942 3.647.058.017V37q-.001.27-.068.518M40 16.686l-11 3.188v1.803l11 3.667zm-.451-1.951L29 17.792V16a2 2 0 0 1 2-2h7c.624 0 1.182.286 1.549.735M39 9h-9v3h9z"
    clip-rule="evenodd"
  />
</svg>
